X:0644
T:Retreat.
M:C
L:1/8
Q:1/4=88 "March"
I: :: ::
Z:Jack Campin * www.campin.me.uk * 2009
K:D
d<df>d e>dBd |A<AF>A B2d2|F<GE>D f<fe>d|FF`Af  B2d2:|
a<af>d e<ed>B|A>AF>A B2d2|F<FE>D f<fe>d|F<FA>f B2d2:|
fd`e>c d2`A2 |a<af>A B2d2|b<ba>f g>ef>d|D<DF>A B2d2:|

